X:66
%%score 1 2
T:All you that are good fellows
M:C
L:1/8
K:C
V:1 clef-treble
V:2 clef-bass octave=-1
V:1
GG|[Ec]2G2[Ec]2[Gd]2|[ce]4[Gd]2[DGB]2|[CGc]2[CFA]2[BDG]2[DFB]2|
w:All* you that are good fel lows, Come heark-en to my
V:2
z2|C,4[cC]2[Gd]2|[ce]4[Gd]2[F,F]2|[E,E]2[F,F]2[G,G]2[G,,G,]2|
V:1
[CEc]6[BDG]2|[CGc]2G2[Ec]2[GBd]2|[Gce]4[Bd]2[FB]2|[Ec]2[FA]2[EG]2[DGB]2|[EGc]6||
w:song; I know you do not hate good~cheer, Nor li-quor that is strong.
V:2
[C,C]2A,2G,2F,2|E,4A,2G,2|C2E2G2G,2|A,2F,2G,2G,2|C,6||
V:1
[Ec]2|[Bd]3[ce][df]2[Gce]2&G6x2|[^FAd]6[DFA]2|[DGd]3[EGc][DGB]2[C^FA]2|[B,G]6[Gdg]2|
w:I hope there is none here, But soon will take my part, See
V:2
B,2|G,6C2|D3ED2C2|B,3CD2D2|G3^FG2B,2|
V:1
[Gce]2[Gc]2[Ad]2[FB]2|[Ec]2[FA]2[EG]2[CGc]2|[CFA]2[CF]2[CE]2[B,DG]2|[CEc]6||
w:ing my mas-ter and my dame Say wel-come with their heart.
V:2
C2E2=F2G2|A2F2c2E2|F2D2G4|C6||


